X: 2318
T: MY WIFE'S A WANTON WEE THING
R: Scotch Jig.
%R: jig
B: James Kerr "Merry Melodies" v.2 p.35 #318
Z: 2016 John Chambers <jc:trillian.mit.edu>
N: The 2nd strain has initial repeat but no finat repeat; not fixed.
M: 6/8
L: 1/8
%%slurgraces yes
%%graceslurs yes
K: D
vf/ue/ |\
vd2uA def | d3 (A2B) | =cdc cGE | =c3 uE2u^c |\
vd2vA dfe | d3 (A2G) | FDF ECE | D3- D2 ::\
(F/G/) |\
ABA FDF | A3 {B}=c3 | G=cG E=CE | {F}G3 B3 |
AdA FDF | A3 {f}g3 | fdf ece | d3- d2 (F/G/) |\
ABA FDF | AdA FDF | GAG E=CE | G=cG E=CE |\
ABA FDF | ABA (a2g) | fdf ece | d3- d2 |]

%%sep 1 1 500
%%sep 1 1 500

